resources/icons/hicolor/scalable/actions/cm-wired-symbolic.svg

<?xml version="1.0" encoding="UTF-8"?>
<svg height="16px" viewBox="0 0 16 16" width="16px" xmlns="http://www.w3.org/2000/svg">
    <path d="m 6 0 c -0.554688 0 -1 0.445312 -1 1 v 3 c 0 0.554688 0.445312 1 1 1 h 1 v 2 h -7 v 2 h 2 v 2 h -1 c -0.554688 0 -1 0.445312 -1 1 v 3 c 0 0.554688 0.445312 1 1 1 h 4 c 0.554688 0 1 -0.445312 1 -1 v -3 c 0 -0.554688 -0.445312 -1 -1 -1 h -1 v -2 h 8 v 2 h -1 c -0.554688 0 -1 0.445312 -1 1 v 3 c 0 0.554688 0.445312 1 1 1 h 4 c 0.554688 0 1 -0.445312 1 -1 v -3 c 0 -0.554688 -0.445312 -1 -1 -1 h -1 v -2 h 2 v -2 h -7 v -2 h 1 c 0.554688 0 1 -0.445312 1 -1 v -3 c 0 -0.554688 -0.445312 -1 -1 -1 z m 0 0" fill="#2e3436"/>
</svg>

<svg width='16' height='16'
     xmlns:gpa='https://www.gtk.org/grappa'
     gpa:version='1'>
  <path d='M6.00 0.00C5.45 0.00 5.00 0.45 5.00 1.00L5.00 4.00C5.00 4.55 5.45 5.00 6.00 5.00L7.00 5.00L7.00 7.00L0.00 7.00L0.00 9.00L2.00 9.00L2.00 11.00L1.00 11.00C0.45 11.00 0.00 11.45 0.00 12.00L0.00 15.00C0.00 15.55 0.45 16.00 1.00 16.00L5.00 16.00C5.55 16.00 6.00 15.55 6.00 15.00L6.00 12.00C6.00 11.45 5.55 11.00 5.00 11.00L4.00 11.00L4.00 9.00L12.00 9.00L12.00 11.00L11.00 11.00C10.45 11.00 10.00 11.45 10.00 12.00L10.00 15.00C10.00 15.55 10.45 16.00 11.00 16.00L15.00 16.00C15.55 16.00 16.00 15.55 16.00 15.00L16.00 12.00C16.00 11.45 15.55 11.00 15.00 11.00L14.00 11.00L14.00 9.00L16.00 9.00L16.00 7.00L9.00 7.00L9.00 5.00L10.00 5.00C10.55 5.00 11.00 4.55 11.00 4.00L11.00 1.00C11.00 0.45 10.55 0.00 10.00 0.00ZM6.00 0.00'
stroke='none'
fill='rgb(0,0,0)'
gpa:fill='foreground'/>
</svg>
